images/spadeFoundationPlaceholder.svg

<svg xmlns="http://www.w3.org/2000/svg" width="179" height="250" viewBox="0 0 179 250">
    <path fill-opacity=".2" d="M166.138 0C173.241 0 179 5.643 179 12.605v224.79c0 6.962-5.759 12.605-12.862 12.605H12.862C5.759 250 0 244.357 0 237.395V12.605C0 5.643 5.759 0 12.862 0zm0 6H12.862C9.046 6 6 8.985 6 12.605v224.79c0 3.62 3.046 6.605 6.862 6.605h153.276c3.816 0 6.862-2.985 6.862-6.605V12.605C173 8.985 169.954 6 166.138 6"/>
    <path fill-opacity=".33" d="M95.688 157.484H83.312q2.297-2.484 3.399-6.023t1.101-8.273q0-2.954-.515-4.172-.516-1.219-1.688-1.219-1.828 0-3.047 3.656-.703 1.781-1.171 2.766-1.547 3.234-4.289 5.039t-6.071 1.804q-4.922 0-8.273-3.515t-3.352-8.766q0-3.984 1.899-8.039 1.898-4.054 7.148-10.711 1.266-1.547 4.125-4.969 11.063-13.218 16.969-22.546 5.391 8.531 16.312 21.75 3.141 3.75 4.641 5.578 5.297 6.656 7.195 10.758t1.899 8.179q0 5.25-3.352 8.766t-8.273 3.515q-3.328 0-6.094-1.804t-4.266-5.039q-.468-.938-1.125-2.766-1.312-3.656-3.093-3.656-1.172 0-1.688 1.219-.515 1.218-.515 4.172 0 4.734 1.124 8.273 1.126 3.539 3.376 6.023"/>
</svg>

<?xml version="1.0" encoding="UTF-8"?>
<!DOCTYPE svg PUBLIC "-//W3C//DTD SVG 1.1//EN" "http://www.w3.org/Graphics/SVG/1.1/DTD/svg11.dtd">
<svg version="1.1" xmlns="http://www.w3.org/2000/svg" xmlns:xlink="http://www.w3.org/1999/xlink" x="0" y="0" width="179" height="250" viewBox="0, 0, 179, 250">
  <g id="Spades_(dark)" transform="translate(-0, -0)">
    <path d="M166.138,0 C173.241,0 179,5.643 179,12.605 L179,237.395 C179,244.357 173.241,250 166.138,250 L12.862,250 C5.759,250 0,244.357 0,237.395 L0,12.605 C0,5.643 5.759,0 12.862,0 L166.138,0 z M166.138,6 L12.862,6 C9.046,6 6,8.985 6,12.605 L6,237.395 C6,241.015 9.046,244 12.862,244 L166.138,244 C169.954,244 173,241.015 173,237.395 L173,12.605 C173,8.985 169.954,6 166.138,6 z" fill="#000000" fill-opacity="0.2"/>
    <path d="M95.688,157.484 L83.312,157.484 Q85.609,155 86.711,151.461 Q87.812,147.922 87.812,143.188 Q87.812,140.234 87.297,139.016 Q86.781,137.797 85.609,137.797 Q83.781,137.797 82.562,141.453 Q81.859,143.234 81.391,144.219 Q79.844,147.453 77.102,149.258 Q74.359,151.062 71.031,151.062 Q66.109,151.062 62.758,147.547 Q59.406,144.031 59.406,138.781 Q59.406,134.797 61.305,130.742 Q63.203,126.688 68.453,120.031 Q69.719,118.484 72.578,115.062 Q83.641,101.844 89.547,92.516 Q94.938,101.047 105.859,114.266 Q109,118.016 110.5,119.844 Q115.797,126.5 117.695,130.602 Q119.594,134.703 119.594,138.781 Q119.594,144.031 116.242,147.547 Q112.891,151.062 107.969,151.062 Q104.641,151.062 101.875,149.258 Q99.109,147.453 97.609,144.219 Q97.141,143.281 96.484,141.453 Q95.172,137.797 93.391,137.797 Q92.219,137.797 91.703,139.016 Q91.188,140.234 91.188,143.188 Q91.188,147.922 92.312,151.461 Q93.438,155 95.688,157.484 z" fill="#000000" fill-opacity="0.33"/>
  </g>
</svg>
